icons/warning.svg

<svg viewBox="0 0 24 22" version="1.1" xmlns="http://www.w3.org/2000/svg" xmlns:xlink="http://www.w3.org/1999/xlink">
    <g stroke="none" stroke-width="1" fill="none" fill-rule="evenodd">
        <g transform="translate(-34.000000, -19.000000)">
            <g transform="translate(32.000000, 16.000000)">
                <polygon opacity="0" points="0 28 28 28 28 0 0 0"></polygon>
                <path d="M25.4040451,21.3246007 C26.151765,22.6206539 25.213206,24.2407407 23.7197917,24.2407407 L4.27996528,24.2407407 C2.78367477,24.2407407 1.84945023,22.6181424 2.59571181,21.3246007 L12.3157465,4.47161458 C13.063831,3.1749537 14.9375058,3.17730324 15.6842535,4.47161458 L25.4040451,21.3246007 Z M14,17.8402778 C12.9708623,17.8402778 12.1365741,18.674566 12.1365741,19.7037037 C12.1365741,20.7328414 12.9708623,21.5671296 14,21.5671296 C15.0291377,21.5671296 15.8634259,20.7328414 15.8634259,19.7037037 C15.8634259,18.674566 15.0291377,17.8402778 14,17.8402778 Z M12.2308391,11.1422338 L12.5313368,16.6514931 C12.5453935,16.909294 12.7585532,17.1111111 13.0167187,17.1111111 L14.9832812,17.1111111 C15.2414468,17.1111111 15.4546065,16.909294 15.4686632,16.6514931 L15.7691609,11.1422338 C15.7843519,10.8637731 15.5626447,10.6296296 15.2837789,10.6296296 L12.7161806,10.6296296 C12.4373148,10.6296296 12.2156481,10.8637731 12.2308391,11.1422338 L12.2308391,11.1422338 Z" id="Color" fill="#FFB727"></path>
            </g>
        </g>
    </g>
</svg>

<svg xmlns="http://www.w3.org/2000/svg" viewBox="0 0 24 22">
  <g fill="none" fill-rule="evenodd" transform="translate(-2 -3)">
    <path fill="#FFB727" d="M25.404 21.325c.748 1.296-.19 2.916-1.684 2.916H4.28c-1.496 0-2.43-1.623-1.684-2.916l9.72-16.853c.748-1.297 2.622-1.295 3.368 0l9.72 16.853zM14 17.84a1.863 1.863 0 100 3.727 1.863 1.863 0 000-3.727zm-1.77-6.698l.301 5.51c.014.257.228.46.486.46h1.966a.486.486 0 00.486-.46l.3-5.51a.486.486 0 00-.485-.512h-2.568c-.279 0-.5.234-.485.512z"/>
  </g>
</svg>
